build/img/mark.svg

<svg width="528" height="184" viewBox="0 0 528 184" fill="none" xmlns="http://www.w3.org/2000/svg">
<mask id="mask0_3067_16399" style="mask-type:alpha" maskUnits="userSpaceOnUse" x="0" y="0" width="528" height="184">
<path d="M0 0H25.2974L85.7013 115.324L146.105 0H170.37V181.408H146.105V44.0563L94.2198 142.535H76.1503L24.2648 44.0563V181.408H0V0Z" fill="white"/>
<path d="M237.834 184C230.262 184 223.551 182.963 217.7 180.89C212.021 178.644 207.202 175.621 203.244 171.82C199.286 168.019 196.274 163.527 194.209 158.344C192.144 153.161 191.112 147.459 191.112 141.239C191.112 127.591 195.07 117.743 202.986 111.696C211.074 105.649 222.604 102.625 237.576 102.625H281.976V93.2958C281.976 81.5474 279.308 73.4272 273.974 68.9352C268.811 64.4432 260.981 62.1972 250.483 62.1972C240.674 62.1972 233.532 64.0977 229.058 67.8986C224.583 71.5268 222.088 75.6732 221.572 80.338H198.856C199.2 74.8094 200.663 69.7127 203.244 65.0479C205.998 60.2103 209.612 56.0638 214.086 52.6085C218.732 49.1531 224.239 46.4751 230.607 44.5747C236.974 42.5014 244.03 41.4648 251.774 41.4648C267.95 41.4648 280.771 45.3521 290.236 53.1268C299.873 60.7286 304.692 73.2545 304.692 90.7042V146.423C304.692 153.679 304.692 160.071 304.692 165.6C304.864 170.956 305.294 176.225 305.982 181.408H286.106C285.59 177.435 285.246 173.72 285.073 170.265C284.901 166.637 284.815 162.577 284.815 158.085C281.201 165.341 275.35 171.474 267.262 176.485C259.174 181.495 249.365 184 237.834 184ZM242.739 163.268C248.074 163.268 253.064 162.577 257.711 161.194C262.53 159.639 266.746 157.48 270.36 154.716C273.974 151.778 276.813 148.237 278.878 144.09C280.943 139.944 281.976 135.106 281.976 129.577V120.248H241.448C233.016 120.248 226.39 121.976 221.572 125.431C216.753 128.714 214.344 133.983 214.344 141.239C214.344 147.632 216.581 152.901 221.056 157.048C225.702 161.194 232.93 163.268 242.739 163.268Z" fill="white"/>
<path d="M326.744 44.0563H347.911V69.9718C350.837 61.8516 355.656 55.1136 362.367 49.7578C369.251 44.2291 377.597 41.4648 387.406 41.4648C390.848 41.4648 393.602 41.6376 395.667 41.9831C397.904 42.3286 399.883 42.7606 401.604 43.2789V64.5296C399.367 63.6657 397.13 63.061 394.892 62.7155C392.827 62.37 389.902 62.1972 386.116 62.1972C380.953 62.1972 376.134 63.1474 371.66 65.0479C367.186 66.9484 363.314 69.6263 360.044 73.0817C356.774 76.3643 354.193 80.4244 352.3 85.262C350.407 90.0995 349.46 95.369 349.46 101.07V181.408H326.744V44.0563Z" fill="white"/>
<path d="M409.257 0H431.973V107.29L494.959 44.0563H522.837L466.047 100.811L528 181.408H499.089L449.785 116.62L431.973 133.465V181.408H409.257V0Z" fill="white"/>
</mask>
<g mask="url(#mask0_3067_16399)">
<g opacity="0.8" filter="url(#filter0_f_3067_16399)">
<circle cx="252" cy="25" r="562" fill="white"/>
</g>
</g>
<defs>
<filter id="filter0_f_3067_16399" x="-461" y="-688" width="1426" height="1426" filterUnits="userSpaceOnUse" color-interpolation-filters="sRGB">
<feFlood flood-opacity="0" result="BackgroundImageFix"/>
<feBlend mode="normal" in="SourceGraphic" in2="BackgroundImageFix" result="shape"/>
<feGaussianBlur stdDeviation="75.5" result="effect1_foregroundBlur_3067_16399"/>
</filter>
</defs>
</svg>

<svg id="Layer_1" data-name="Layer 1" xmlns="http://www.w3.org/2000/svg" viewBox="0 0 528 184"><defs><style>.cls-1{fill:#fff;}</style></defs><path class="cls-1" d="M0,0H25.3L85.7,115.32,146.1,0h24.27V181.41H146.1V44.06L94.22,142.54H76.15L24.26,44.06V181.41H0Z"/><path class="cls-1" d="M237.83,184a60.19,60.19,0,0,1-20.13-3.11,44,44,0,0,1-14.46-9.07,37.88,37.88,0,0,1-9-13.48,45.68,45.68,0,0,1-3.1-17.1q0-20.48,11.88-29.54,12.12-9.08,34.59-9.07H282V93.3q0-17.62-8-24.36-7.74-6.75-23.49-6.74-14.72,0-21.42,5.7-6.72,5.44-7.49,12.44H198.86a35.68,35.68,0,0,1,4.38-15.29,41.51,41.51,0,0,1,10.85-12.44,52.65,52.65,0,0,1,16.52-8,68.13,68.13,0,0,1,21.16-3.11q24.27,0,38.47,11.67,14.44,11.4,14.45,37.57v74.9A157.48,157.48,0,0,0,306,181.41H286.11q-.78-6-1-11.15-.26-5.43-.25-12.17-5.43,10.88-17.56,18.4T237.83,184Zm4.91-20.73a52,52,0,0,0,15-2.08,41.6,41.6,0,0,0,12.65-6.47A30.87,30.87,0,0,0,282,129.58v-9.33H241.45q-12.64,0-19.88,5.18-7.23,4.92-7.23,15.81a20.61,20.61,0,0,0,6.72,15.81Q228,163.26,242.74,163.27Z"/><path class="cls-1" d="M326.74,44.06h21.17V70a44.81,44.81,0,0,1,14.46-20.21q10.32-8.3,25-8.3a53,53,0,0,1,8.26.52,44.54,44.54,0,0,1,5.93,1.3V64.53a32,32,0,0,0-6.71-1.81,55.91,55.91,0,0,0-8.77-.52,36.58,36.58,0,0,0-14.46,2.85,34.34,34.34,0,0,0-11.62,8,35,35,0,0,0-7.74,12.18,43.09,43.09,0,0,0-2.84,15.81v80.34H326.74Z"/><path class="cls-1" d="M409.26,0H432V107.29l63-63.23h27.88l-56.79,56.75L528,181.41H499.09l-49.3-64.79L432,133.46v47.95H409.26Z"/></svg>
